!!!OTL: MEIN SCHIFF GEHT AUF DER SEE
!!!ARE: Europa, Mitteleuropa, Deutschland, Hochwald, Hellertshausen
!!!SCT: B0604
!!!YEM: Copyright 1995, estate of Helmut Schaffrath.
**kern
*ICvox
*Ivox
*M4/4
*k[f#c#]
*D:
{8d
8f#
=1
4a
4f#
8a
8g
8e
8g
=2
2f#
4r}
{8e
8f#
=3
4g
4a
8f#
8d
8a
8f#
=4
2e
4r}
{8d
8f#
=5
4a
4f#
8a
8g
8e
8g
=6
2f#
4r}
{8e
8f#
=7
4g
4a
8f#
8d
8a
8f#
=8
2e
4r}
{4a
=9
8f#
8a
8dd
8f#
8e
8f#
8g
8e
=10
8d
8f#
8a
8a
4a}
{4a
=11
8f#
8a
8dd
8f#
8e
8f#
8g
8e
=12
8d
8f#
8a
8a
4a}
{4a
=13
4b
8b
8b
4a
4a
=14
8g
8e
8a
8g
4f#}
{4a
=15
8b
8dd
8cc#
8b
4a
4f#
=16
4a
8cc#
8ee
4dd}
==
!!!AGN: Staende -, Seemanns - Lied, Tod
!!!ONB: ESAC (Essen Associative Code) Database: BOEHME
!!!AMT: simple quadruple
!!!AIN: vox
!!!EED: Helmut Schaffrath
!!!EEV: 1.0
*-
